images/youtube.svg

<svg width="26" height="19" viewBox="0 0 26 19" fill="none" xmlns="http://www.w3.org/2000/svg">
<path d="M25.994 6.6962C26.0524 4.9381 25.6827 3.19316 24.9192 1.6234C24.4012 0.979286 23.6823 0.544611 22.8878 0.395117C19.6015 0.0850075 16.3016 -0.0420963 13.0022 0.0143504C9.71487 -0.0446583 6.42684 0.078344 3.15207 0.382835C2.50463 0.505315 1.90546 0.821137 1.4277 1.29176C0.364734 2.31123 0.246627 4.05539 0.12852 5.52933C-0.0428398 8.17942 -0.0428398 10.8385 0.12852 13.4886C0.162688 14.3182 0.281461 15.1416 0.482841 15.9451C0.625249 16.5655 0.913369 17.1395 1.3214 17.6156C1.80242 18.1112 2.41553 18.445 3.0812 18.5737C5.62749 18.9005 8.19314 19.036 10.7582 18.979C14.8919 19.0404 18.5178 18.979 22.8051 18.6351C23.4871 18.5143 24.1175 18.1801 24.6122 17.677C24.9428 17.333 25.1898 16.9119 25.3326 16.4487C25.755 15.1008 25.9625 13.6902 25.9468 12.2726C25.994 11.5848 25.994 7.43317 25.994 6.6962ZM10.333 13.0096V5.4065L17.3249 9.22646C15.3644 10.3565 12.7778 11.6339 10.333 13.0096Z" fill="white"/>
</svg>

<svg width="26" height="19" fill="none" xmlns="http://www.w3.org/2000/svg"><path d="M25.994 6.696a10.789 10.789 0 0 0-1.075-5.073A3.423 3.423 0 0 0 22.888.395a89.012 89.012 0 0 0-9.886-.38 89.113 89.113 0 0 0-9.85.368 3.344 3.344 0 0 0-1.724.909C.365 2.312.247 4.055.128 5.529a61.68 61.68 0 0 0 0 7.96c.035.83.153 1.653.355 2.456.142.62.43 1.195.838 1.67.481.496 1.095.83 1.76.959a51.34 51.34 0 0 0 7.677.405c4.134.061 7.76 0 12.047-.344a3.357 3.357 0 0 0 1.807-.958c.33-.344.578-.765.72-1.228.423-1.348.63-2.759.615-4.176.047-.688.047-4.84.047-5.577zM10.333 13.01V5.407l6.992 3.82c-1.96 1.13-4.547 2.407-6.992 3.783z" fill="#fff"/></svg>
